public/library/aave-icon-light.svg

<svg width="833" height="139" viewBox="0 0 833 139" fill="none" xmlns="http://www.w3.org/2000/svg">
<path d="M764.174 110.231C746.305 110.231 730.427 97.2842 726.337 79.409H832.43C832.43 79.409 833 72.9322 833 70.641C833 32.7018 802.132 1.82812 764.193 1.82812C726.254 1.82812 695.387 32.6954 695.387 70.641C695.387 108.587 726.081 138.737 764.193 138.737C802.305 138.737 824.558 110.66 830.113 90.3338H797.774C797.774 90.3338 787.489 110.231 764.174 110.231ZM764.193 30.321C781.326 30.321 796.2 41.6362 801.294 58.5002H727.092C732.168 41.6362 747.048 30.321 764.193 30.321Z" fill="white" style="fill:white;fill-opacity:1;"/>
<path d="M359.33 138.737C321.391 138.737 291.631 108.19 291.631 70.641C291.631 33.0922 322.498 1.82812 360.437 1.82812C398.377 1.82812 429.244 33.9114 429.244 70.2762C429.244 85.7706 429.244 135.326 429.244 135.326H402.53V113.617L400.585 113.105C395.881 124.638 378.837 138.737 359.324 138.737H359.33ZM360.437 30.321C339.01 30.321 321.57 48.3114 321.57 70.4298C321.57 92.5482 339.004 110.238 360.437 110.238C381.871 110.238 399.305 92.3818 399.305 70.4298C399.305 48.4778 381.871 30.321 360.437 30.321Z" fill="white" style="fill:white;fill-opacity:1;"/>
<path d="M505.473 138.737C467.533 138.737 437.773 108.19 437.773 70.641C437.773 33.0922 468.641 1.82812 506.58 1.82812C544.519 1.82812 575.386 33.9114 575.386 70.2762C575.386 85.7706 575.386 135.326 575.386 135.326H548.673V113.617L546.727 113.105C542.023 124.638 524.98 138.737 505.466 138.737H505.473ZM506.58 30.321C485.153 30.321 467.713 48.3114 467.713 70.4298C467.713 92.5482 485.146 110.238 506.58 110.238C528.014 110.238 545.447 92.3818 545.447 70.4298C545.447 48.4778 528.014 30.321 506.58 30.321Z" fill="white" style="fill:white;fill-opacity:1;"/>
<path d="M620.231 135.311L565.402 5.25H595.399L635.585 101.058L675.777 5.25H705.767L650.945 135.311H620.231Z" fill="white" style="fill:white;fill-opacity:1;"/>
<path d="M97.5418 138.533C112.461 138.533 124.556 126.438 124.556 111.518C124.556 96.5987 112.461 84.5039 97.5418 84.5039C82.6221 84.5039 70.5273 96.5987 70.5273 111.518C70.5273 126.438 82.6221 138.533 97.5418 138.533Z" fill="white" style="fill:white;fill-opacity:1;"/>
<path d="M168.149 138.533C183.069 138.533 195.164 126.438 195.164 111.518C195.164 96.5987 183.069 84.5039 168.149 84.5039C153.23 84.5039 141.135 96.5987 141.135 111.518C141.135 126.438 153.23 138.533 168.149 138.533Z" fill="white" style="fill:white;fill-opacity:1;"/>
<path d="M132.8 0C59.4497 0 -0.0191954 60.6017 4.64786e-06 135.335H33.9264C33.9264 79.3281 77.8433 33.92 132.8 33.92C187.757 33.92 231.674 79.3281 231.674 135.335H265.6C265.613 60.6017 206.144 0 132.8 0Z" fill="white" style="fill:white;fill-opacity:1;"/>
</svg>

<svg xmlns="http://www.w3.org/2000/svg" width="833" height="139" fill="none" viewBox="0 0 833 139"><path fill="#fff" d="M764.174 110.231c-17.869 0-33.747-12.947-37.837-30.822H832.43s.57-6.477.57-8.768c0-37.94-30.868-68.813-68.807-68.813s-68.806 30.867-68.806 68.813 30.694 68.096 68.806 68.096 60.365-28.077 65.92-48.403h-32.339s-10.285 19.897-33.6 19.897m.019-79.91c17.133 0 32.007 11.315 37.101 28.18h-74.202c5.076-16.865 19.956-28.18 37.101-28.18M359.33 138.737c-37.939 0-67.699-30.547-67.699-68.096s30.867-68.813 68.806-68.813c37.94 0 68.807 32.083 68.807 68.448v65.05H402.53v-21.709l-1.945-.512c-4.704 11.533-21.748 25.632-41.261 25.632zm1.107-108.416c-21.427 0-38.867 17.99-38.867 40.109 0 22.118 17.434 39.808 38.867 39.808 21.434 0 38.868-17.856 38.868-39.808S381.871 30.32 360.437 30.32M505.473 138.737c-37.94 0-67.7-30.547-67.7-68.096S468.641 1.828 506.58 1.828s68.806 32.083 68.806 68.448v65.05h-26.713v-21.709l-1.946-.512c-4.704 11.533-21.747 25.632-41.261 25.632zm1.107-108.416c-21.427 0-38.867 17.99-38.867 40.109 0 22.118 17.433 39.808 38.867 39.808s38.867-17.856 38.867-39.808S528.014 30.32 506.58 30.32M620.231 135.311 565.402 5.25h29.997l40.186 95.808L675.777 5.25h29.99l-54.822 130.061zM97.542 138.533c14.919 0 27.014-12.095 27.014-27.015s-12.095-27.014-27.014-27.014c-14.92 0-27.015 12.095-27.015 27.014 0 14.92 12.095 27.015 27.015 27.015M168.149 138.533c14.92 0 27.015-12.095 27.015-27.015s-12.095-27.014-27.015-27.014-27.014 12.095-27.014 27.014c0 14.92 12.095 27.015 27.014 27.015" style="fill:#fff;fill-opacity:1"/><path fill="#fff" d="M132.8 0C59.45 0-.02 60.602 0 135.335h33.926c0-56.007 43.917-101.415 98.874-101.415s98.874 45.408 98.874 101.415H265.6C265.613 60.602 206.144 0 132.8 0" style="fill:#fff;fill-opacity:1"/></svg>
